/* XPM */
static char * renderhive_icon_xpm[] = {
"32 32 5 1",
"  c None",
". c #111827",
"+ c #F59E0B",
"@ c #FFFFFF",
"# c #2563EB",
"................................",
"................................",
"......++++++++++++++++++++......",
".....++++++++++++++++++++++.....",
"....+++++............+++++......",
"...+++++..............+++++.....",
"...++++....########....++++.....",
"...++++...##########...++++.....",
"...++++...####..####...++++.....",
"...++++...####..####...++++.....",
"...++++...##########...++++.....",
"...++++...##########...++++.....",
"...++++...####..####...++++.....",
"...++++...####..####...++++.....",
"...++++...####..####...++++.....",
"...++++...####..####...++++.....",
"...++++................++++.....",
"...++++....@@@@@@@@....++++.....",
"...++++....@@@@@@@@....++++.....",
"...++++....@@....@@....++++.....",
"...++++....@@....@@....++++.....",
"...++++....@@@@@@@@....++++.....",
"...++++....@@@@@@@@....++++.....",
"...++++................++++.....",
"...+++++..............+++++.....",
"....+++++............+++++......",
".....++++++++++++++++++++++.....",
"......++++++++++++++++++++......",
"................................",
"................................",
"................................",
"................................"
};
